src/components/00-materials/images-raw/Paint Roll.svg

<svg width="96" height="96" viewBox="0 0 96 96" fill="none" xmlns="http://www.w3.org/2000/svg">
<mask id="path-2-inside-1" fill="white">
<path d="M78.75 22.25V12.25C78.75 11.1891 78.3286 10.1717 77.5784 9.42157C76.8283 8.67143 75.8109 8.25 74.75 8.25H13.75C12.6891 8.25 11.6717 8.67143 10.9216 9.42157C10.1714 10.1717 9.75 11.1891 9.75 12.25V36.25C9.75 37.3109 10.1714 38.3283 10.9216 39.0784C11.6717 39.8286 12.6891 40.25 13.75 40.25H74.75C75.8109 40.25 76.8283 39.8286 77.5784 39.0784C78.3286 38.3283 78.75 37.3109 78.75 36.25V24.25C83.56 24.37 84.25 26.25 84.25 28.25V38.25C84.25 41.6 82.73 43.35 79.01 44.25C77.01 44.74 70.72 45.75 64.59 46.73C58.14 47.73 52.05 48.73 50.01 49.25C45.35 50.42 43.46 53.02 43.27 58.72H39.75C39.2196 58.72 38.7109 58.9307 38.3358 59.3058C37.9607 59.6809 37.75 60.1896 37.75 60.72V85.72C37.75 86.2504 37.9607 86.7591 38.3358 87.1342C38.7109 87.5093 39.2196 87.72 39.75 87.72H48.75C49.2804 87.72 49.7891 87.5093 50.1642 87.1342C50.5393 86.7591 50.75 86.2504 50.75 85.72V60.72C50.75 60.1896 50.5393 59.6809 50.1642 59.3058C49.7891 58.9307 49.2804 58.72 48.75 58.72H45.27C45.46 53.45 47.21 52.01 50.49 51.19C52.49 50.7 58.78 49.69 64.91 48.71C71.36 47.71 77.45 46.71 79.49 46.19C84.1 45.04 86.25 42.51 86.25 38.19V28.19C86.25 22.69 81.08 22.28 78.75 22.25ZM13.75 10.25H74.75C75.2804 10.25 75.7891 10.4607 76.1642 10.8358C76.5393 11.2109 76.75 11.7196 76.75 12.25V14C73.1144 15.6098 69.364 16.9468 65.53 18C63.53 18.45 63.63 20.63 63.71 21.94V22.81C63.71 23.27 62.71 23.31 62.71 23.31C62.71 23.31 61.71 23.31 61.71 22.74V22.3C61.71 20.7 61.82 17.35 56.4 16.3C51.74 15.37 45.69 16.88 39.83 18.3C36.7861 19.1375 33.698 19.8052 30.58 20.3C29.42 20.44 29.48 21.56 29.58 24.02C29.58 24.68 29.66 25.35 29.66 25.86C29.66 26.03 29.66 26.07 29.59 26.09C29.3107 26.2579 28.9836 26.3283 28.66 26.29C28.66 26.29 27.66 26.24 27.66 25.86C27.66 25.48 27.66 24.78 27.72 24.14C27.86 21.48 27.91 20.38 26.72 20.29C24.1809 20.003 21.7127 19.2683 19.43 18.12C16.89 17 14.43 15.97 11.65 16.23V12.25C11.6497 11.9787 11.7045 11.7102 11.8112 11.4608C11.9179 11.2114 12.0742 10.9863 12.2707 10.7992C12.4671 10.6121 12.6996 10.467 12.9539 10.3726C13.2082 10.2781 13.4791 10.2364 13.75 10.25ZM74.75 38.25H13.75C13.2196 38.25 12.7109 38.0393 12.3358 37.6642C11.9607 37.2891 11.75 36.7804 11.75 36.25V18.25C14.14 17.97 16.28 18.88 18.75 19.96C21.011 21.0651 23.4242 21.8268 25.91 22.22C25.91 22.74 25.91 23.49 25.84 24.04C25.77 24.59 25.77 25.39 25.77 25.87C25.77 27.54 27.32 28.3 28.69 28.3H28.9C29.6706 28.2988 30.4155 28.0222 31 27.52C31.2326 27.3036 31.4163 27.0399 31.5388 26.7467C31.6612 26.4536 31.7196 26.1376 31.71 25.82C31.71 25.28 31.71 24.57 31.63 23.87C31.63 23.34 31.56 22.63 31.55 22.14C34.32 21.74 37.36 20.98 40.32 20.25C45.96 18.84 51.8 17.39 56.01 18.25C59.79 19.01 59.75 20.74 59.72 22.25V22.67C59.72 24.55 61.51 25.24 62.72 25.24C63.93 25.24 65.72 24.57 65.72 22.74V21.74C65.64 20.54 65.66 19.95 65.98 19.88C69.6627 18.9035 73.2663 17.65 76.76 16.13V36.25C76.76 36.5135 76.7079 36.7744 76.6068 37.0177C76.5057 37.261 76.3575 37.4819 76.1707 37.6678C75.9839 37.8536 75.7622 38.0007 75.5184 38.1006C75.2746 38.2006 75.0135 38.2513 74.75 38.25ZM48.75 85.75H39.75V83.33H43.25C43.5152 83.33 43.7696 83.2246 43.9571 83.0371C44.1446 82.8496 44.25 82.5952 44.25 82.33C44.25 82.0648 44.1446 81.8104 43.9571 81.6229C43.7696 81.4354 43.5152 81.33 43.25 81.33H39.75V77.33H43.25C43.5152 77.33 43.7696 77.2246 43.9571 77.0371C44.1446 76.8496 44.25 76.5952 44.25 76.33C44.25 76.0648 44.1446 75.8104 43.9571 75.6229C43.7696 75.4354 43.5152 75.33 43.25 75.33H39.75V71.33H43.25C43.5152 71.33 43.7696 71.2246 43.9571 71.0371C44.1446 70.8496 44.25 70.5952 44.25 70.33C44.25 70.0648 44.1446 69.8104 43.9571 69.6229C43.7696 69.4354 43.5152 69.33 43.25 69.33H39.75V65.33H43.25C43.5152 65.33 43.7696 65.2246 43.9571 65.0371C44.1446 64.8496 44.25 64.5952 44.25 64.33C44.25 64.0648 44.1446 63.8104 43.9571 63.6229C43.7696 63.4354 43.5152 63.33 43.25 63.33H39.75V60.75H48.75V85.75Z"/>
</mask>
<path d="M78.75 22.25V12.25C78.75 11.1891 78.3286 10.1717 77.5784 9.42157C76.8283 8.67143 75.8109 8.25 74.75 8.25H13.75C12.6891 8.25 11.6717 8.67143 10.9216 9.42157C10.1714 10.1717 9.75 11.1891 9.75 12.25V36.25C9.75 37.3109 10.1714 38.3283 10.9216 39.0784C11.6717 39.8286 12.6891 40.25 13.75 40.25H74.75C75.8109 40.25 76.8283 39.8286 77.5784 39.0784C78.3286 38.3283 78.75 37.3109 78.75 36.25V24.25C83.56 24.37 84.25 26.25 84.25 28.25V38.25C84.25 41.6 82.73 43.35 79.01 44.25C77.01 44.74 70.72 45.75 64.59 46.73C58.14 47.73 52.05 48.73 50.01 49.25C45.35 50.42 43.46 53.02 43.27 58.72H39.75C39.2196 58.72 38.7109 58.9307 38.3358 59.3058C37.9607 59.6809 37.75 60.1896 37.75 60.72V85.72C37.75 86.2504 37.9607 86.7591 38.3358 87.1342C38.7109 87.5093 39.2196 87.72 39.75 87.72H48.75C49.2804 87.72 49.7891 87.5093 50.1642 87.1342C50.5393 86.7591 50.75 86.2504 50.75 85.72V60.72C50.75 60.1896 50.5393 59.6809 50.1642 59.3058C49.7891 58.9307 49.2804 58.72 48.75 58.72H45.27C45.46 53.45 47.21 52.01 50.49 51.19C52.49 50.7 58.78 49.69 64.91 48.71C71.36 47.71 77.45 46.71 79.49 46.19C84.1 45.04 86.25 42.51 86.25 38.19V28.19C86.25 22.69 81.08 22.28 78.75 22.25ZM13.75 10.25H74.75C75.2804 10.25 75.7891 10.4607 76.1642 10.8358C76.5393 11.2109 76.75 11.7196 76.75 12.25V14C73.1144 15.6098 69.364 16.9468 65.53 18C63.53 18.45 63.63 20.63 63.71 21.94V22.81C63.71 23.27 62.71 23.31 62.71 23.31C62.71 23.31 61.71 23.31 61.71 22.74V22.3C61.71 20.7 61.82 17.35 56.4 16.3C51.74 15.37 45.69 16.88 39.83 18.3C36.7861 19.1375 33.698 19.8052 30.58 20.3C29.42 20.44 29.48 21.56 29.58 24.02C29.58 24.68 29.66 25.35 29.66 25.86C29.66 26.03 29.66 26.07 29.59 26.09C29.3107 26.2579 28.9836 26.3283 28.66 26.29C28.66 26.29 27.66 26.24 27.66 25.86C27.66 25.48 27.66 24.78 27.72 24.14C27.86 21.48 27.91 20.38 26.72 20.29C24.1809 20.003 21.7127 19.2683 19.43 18.12C16.89 17 14.43 15.97 11.65 16.23V12.25C11.6497 11.9787 11.7045 11.7102 11.8112 11.4608C11.9179 11.2114 12.0742 10.9863 12.2707 10.7992C12.4671 10.6121 12.6996 10.467 12.9539 10.3726C13.2082 10.2781 13.4791 10.2364 13.75 10.25ZM74.75 38.25H13.75C13.2196 38.25 12.7109 38.0393 12.3358 37.6642C11.9607 37.2891 11.75 36.7804 11.75 36.25V18.25C14.14 17.97 16.28 18.88 18.75 19.96C21.011 21.0651 23.4242 21.8268 25.91 22.22C25.91 22.74 25.91 23.49 25.84 24.04C25.77 24.59 25.77 25.39 25.77 25.87C25.77 27.54 27.32 28.3 28.69 28.3H28.9C29.6706 28.2988 30.4155 28.0222 31 27.52C31.2326 27.3036 31.4163 27.0399 31.5388 26.7467C31.6612 26.4536 31.7196 26.1376 31.71 25.82C31.71 25.28 31.71 24.57 31.63 23.87C31.63 23.34 31.56 22.63 31.55 22.14C34.32 21.74 37.36 20.98 40.32 20.25C45.96 18.84 51.8 17.39 56.01 18.25C59.79 19.01 59.75 20.74 59.72 22.25V22.67C59.72 24.55 61.51 25.24 62.72 25.24C63.93 25.24 65.72 24.57 65.72 22.74V21.74C65.64 20.54 65.66 19.95 65.98 19.88C69.6627 18.9035 73.2663 17.65 76.76 16.13V36.25C76.76 36.5135 76.7079 36.7744 76.6068 37.0177C76.5057 37.261 76.3575 37.4819 76.1707 37.6678C75.9839 37.8536 75.7622 38.0007 75.5184 38.1006C75.2746 38.2006 75.0135 38.2513 74.75 38.25ZM48.75 85.75H39.75V83.33H43.25C43.5152 83.33 43.7696 83.2246 43.9571 83.0371C44.1446 82.8496 44.25 82.5952 44.25 82.33C44.25 82.0648 44.1446 81.8104 43.9571 81.6229C43.7696 81.4354 43.5152 81.33 43.25 81.33H39.75V77.33H43.25C43.5152 77.33 43.7696 77.2246 43.9571 77.0371C44.1446 76.8496 44.25 76.5952 44.25 76.33C44.25 76.0648 44.1446 75.8104 43.9571 75.6229C43.7696 75.4354 43.5152 75.33 43.25 75.33H39.75V71.33H43.25C43.5152 71.33 43.7696 71.2246 43.9571 71.0371C44.1446 70.8496 44.25 70.5952 44.25 70.33C44.25 70.0648 44.1446 69.8104 43.9571 69.6229C43.7696 69.4354 43.5152 69.33 43.25 69.33H39.75V65.33H43.25C43.5152 65.33 43.7696 65.2246 43.9571 65.0371C44.1446 64.8496 44.25 64.5952 44.25 64.33C44.25 64.0648 44.1446 63.8104 43.9571 63.6229C43.7696 63.4354 43.5152 63.33 43.25 63.33H39.75V60.75H48.75V85.75Z" stroke="#00008F" stroke-width="2" mask="url(#path-2-inside-1)"/>
</svg>

<svg width="96" height="96" viewBox="0 0 96 96" fill="none" xmlns="http://www.w3.org/2000/svg"><mask id="a" fill="#fff"><path d="M78.75 22.25v-10a4 4 0 00-4-4h-61a4 4 0 00-4 4v24a4 4 0 004 4h61a4 4 0 004-4v-12c4.81.12 5.5 2 5.5 4v10c0 3.35-1.52 5.1-5.24 6-2 .49-8.29 1.5-14.42 2.48-6.45 1-12.54 2-14.58 2.52-4.66 1.17-6.55 3.77-6.74 9.47h-3.52a2 2 0 00-2 2v25a2 2 0 002 2h9a2 2 0 002-2v-25a2 2 0 00-2-2h-3.48c.19-5.27 1.94-6.71 5.22-7.53 2-.49 8.29-1.5 14.42-2.48 6.45-1 12.54-2 14.58-2.52 4.61-1.15 6.76-3.68 6.76-8v-10c0-5.5-5.17-5.91-7.5-5.94zm-65-12h61a2 2 0 012 2V14a80.151 80.151 0 01-11.22 4c-2 .45-1.9 2.63-1.82 3.94v.87c0 .46-1 .5-1 .5s-1 0-1-.57v-.44c0-1.6.11-4.95-5.31-6-4.66-.93-10.71.58-16.57 2a85.213 85.213 0 01-9.25 2c-1.16.14-1.1 1.26-1 3.72 0 .66.08 1.33.08 1.84 0 .17 0 .21-.07.23a1.47 1.47 0 01-.93.2s-1-.05-1-.43 0-1.08.06-1.72c.14-2.66.19-3.76-1-3.85a21.628 21.628 0 01-7.29-2.17c-2.54-1.12-5-2.15-7.78-1.89v-3.98a2 2 0 012.1-2zm61 28h-61a2 2 0 01-2-2v-18c2.39-.28 4.53.63 7 1.71a25.31 25.31 0 007.16 2.26c0 .52 0 1.27-.07 1.82s-.07 1.35-.07 1.83c0 1.67 1.55 2.43 2.92 2.43h.21a3.23 3.23 0 002.1-.78 2.23 2.23 0 00.71-1.7c0-.54 0-1.25-.08-1.95 0-.53-.07-1.24-.08-1.73 2.77-.4 5.81-1.16 8.77-1.89 5.64-1.41 11.48-2.86 15.69-2 3.78.76 3.74 2.49 3.71 4v.42c0 1.88 1.79 2.57 3 2.57s3-.67 3-2.5v-1c-.08-1.2-.06-1.79.26-1.86a75.572 75.572 0 0010.78-3.75v20.12a2 2 0 01-2.01 2zm-26 47.5h-9v-2.42h3.5a1 1 0 000-2h-3.5v-4h3.5a1 1 0 000-2h-3.5v-4h3.5a1 1 0 000-2h-3.5v-4h3.5a1 1 0 000-2h-3.5v-2.58h9v25z"/></mask><path d="M78.75 22.25v-10a4 4 0 00-4-4h-61a4 4 0 00-4 4v24a4 4 0 004 4h61a4 4 0 004-4v-12c4.81.12 5.5 2 5.5 4v10c0 3.35-1.52 5.1-5.24 6-2 .49-8.29 1.5-14.42 2.48-6.45 1-12.54 2-14.58 2.52-4.66 1.17-6.55 3.77-6.74 9.47h-3.52a2 2 0 00-2 2v25a2 2 0 002 2h9a2 2 0 002-2v-25a2 2 0 00-2-2h-3.48c.19-5.27 1.94-6.71 5.22-7.53 2-.49 8.29-1.5 14.42-2.48 6.45-1 12.54-2 14.58-2.52 4.61-1.15 6.76-3.68 6.76-8v-10c0-5.5-5.17-5.91-7.5-5.94zm-65-12h61a2 2 0 012 2V14a80.151 80.151 0 01-11.22 4c-2 .45-1.9 2.63-1.82 3.94v.87c0 .46-1 .5-1 .5s-1 0-1-.57v-.44c0-1.6.11-4.95-5.31-6-4.66-.93-10.71.58-16.57 2a85.213 85.213 0 01-9.25 2c-1.16.14-1.1 1.26-1 3.72 0 .66.08 1.33.08 1.84 0 .17 0 .21-.07.23a1.47 1.47 0 01-.93.2s-1-.05-1-.43 0-1.08.06-1.72c.14-2.66.19-3.76-1-3.85a21.628 21.628 0 01-7.29-2.17c-2.54-1.12-5-2.15-7.78-1.89v-3.98a2 2 0 012.1-2zm61 28h-61a2 2 0 01-2-2v-18c2.39-.28 4.53.63 7 1.71a25.31 25.31 0 007.16 2.26c0 .52 0 1.27-.07 1.82s-.07 1.35-.07 1.83c0 1.67 1.55 2.43 2.92 2.43h.21a3.23 3.23 0 002.1-.78 2.23 2.23 0 00.71-1.7c0-.54 0-1.25-.08-1.95 0-.53-.07-1.24-.08-1.73 2.77-.4 5.81-1.16 8.77-1.89 5.64-1.41 11.48-2.86 15.69-2 3.78.76 3.74 2.49 3.71 4v.42c0 1.88 1.79 2.57 3 2.57s3-.67 3-2.5v-1c-.08-1.2-.06-1.79.26-1.86a75.572 75.572 0 0010.78-3.75v20.12a2 2 0 01-2.01 2zm-26 47.5h-9v-2.42h3.5a1 1 0 000-2h-3.5v-4h3.5a1 1 0 000-2h-3.5v-4h3.5a1 1 0 000-2h-3.5v-4h3.5a1 1 0 000-2h-3.5v-2.58h9v25z" stroke="#00008F" stroke-width="2" mask="url(#a)"/></svg>
